usr/share/icons/biglinux-icons-material/22/actions/gnumeric-format-precision-increase.svg

<svg id="svg8" version="1.1" viewBox="0 0 22 22" xmlns="http://www.w3.org/2000/svg">
    <defs id="defs3051">
        <style id="current-color-scheme" type="text/css">.ColorScheme-Text {
        color:#dedede;
      }</style>
    </defs>
    <path id="path4" class="ColorScheme-Text" d="m7.5 2c-1.932997 0-3.5 1.7909-3.5 4v3c0 2.2091 1.567003 4 3.5 4s3.5-1.7909 3.5-4v-3c0-2.2091-1.567003-4-3.5-4zm8 0c-1.932997 0-3.5 1.7909-3.5 4v3c0 2.2091 1.567003 4 3.5 4s3.5-1.7909 3.5-4v-3c0-2.2091-1.567003-4-3.5-4zm-8 1c1.380712 0 2.5 1.3432 2.5 3v3c0 1.6569-1.119288 3-2.5 3-1.3807119 0-2.5-1.3431-2.5-3v-3c0-1.6568 1.1192881-3 2.5-3zm8 0c1.380712 0 2.5 1.3431 2.5 3v3c0 1.6569-1.119288 3-2.5 3s-2.5-1.3431-2.5-3v-3c0-1.6569 1.119288-3 2.5-3zm-12.5 9v1h1v-1z" fill="currentColor"/>
    <path id="path6" d="m15 14v2h-2v1h2v2h1v-2h2v-1h-2v-2z" fill="#1d99f3"/>
</svg>

<svg xmlns="http://www.w3.org/2000/svg" viewBox="0 0 22 22"><path fill="currentColor" d="M7.5 2C5.567 2 4 3.79 4 6v3c0 2.21 1.567 4 3.5 4S11 11.21 11 9V6c0-2.21-1.567-4-3.5-4zm8 0C13.567 2 12 3.79 12 6v3c0 2.21 1.567 4 3.5 4S19 11.21 19 9V6c0-2.21-1.567-4-3.5-4zm-8 1C8.88 3 10 4.343 10 6v3c0 1.657-1.12 3-2.5 3S5 10.657 5 9V6c0-1.657 1.12-3 2.5-3zm8 0C16.88 3 18 4.343 18 6v3c0 1.657-1.12 3-2.5 3S13 10.657 13 9V6c0-1.657 1.12-3 2.5-3zM3 12v1h1v-1z" style="color:#dedede"/><path fill="#1d99f3" d="M15 14v2h-2v1h2v2h1v-2h2v-1h-2v-2z"/></svg>
